img/svg/icon-font/receiver.svg

<svg width="22" height="22" viewBox="0 0 22 22" fill="none" xmlns="http://www.w3.org/2000/svg">
<g clip-path="url(#clip0)">
<path d="M7.53046 20.2812H2.65082C2.28391 20.2812 2.06269 20.0765 1.96332 19.9545C1.79195 19.7436 1.72565 19.4694 1.78138 19.2017C2.67382 14.9149 6.45692 11.7845 10.8243 11.683C10.8968 11.6857 10.9696 11.6875 11.043 11.6875C14.2651 11.6875 16.8867 9.06607 16.8867 5.84375C16.8867 2.62143 14.2651 0 11.043 0C7.82067 0 5.19924 2.62143 5.19924 5.84375C5.19924 7.7562 6.12273 9.45715 7.54725 10.5238C6.24224 10.9533 5.01763 11.6215 3.94576 12.5031C1.98078 14.1194 0.614508 16.3739 0.0987147 18.8514C-0.0629216 19.6277 0.130774 20.4249 0.62995 21.0389C1.12661 21.6497 1.86329 22 2.65082 22H7.53046C8.00497 22 8.38984 21.6153 8.38984 21.1406C8.38984 20.666 8.00497 20.2812 7.53046 20.2812ZM6.91799 5.84375C6.91799 3.56926 8.76833 1.71875 11.043 1.71875C13.3175 1.71875 15.168 3.56926 15.168 5.84375C15.168 8.08568 13.3702 9.91554 11.1405 9.96758C11.1085 9.96388 11.0761 9.96153 11.043 9.96153C10.9759 9.96153 10.9089 9.96254 10.8419 9.96371C8.66041 9.85864 6.91799 8.05093 6.91799 5.84375ZM19.9055 13.2344H12.8796C11.7011 13.2344 10.7422 14.1933 10.7422 15.3717V19.8626C10.7422 21.0411 11.7011 22 12.8796 22H19.9055C21.0841 22 22.043 21.0411 22.043 19.8626V15.3717C22.043 14.1933 21.0841 13.2344 19.9055 13.2344ZM19.834 14.9531L16.5494 16.9955C16.4129 17.0802 16.2436 17.0802 16.1071 16.9955L12.828 14.9566C12.845 14.9545 12.8621 14.9531 12.8796 14.9531H19.834ZM19.9055 20.2812H12.8796C12.6488 20.2812 12.4608 20.0934 12.4608 19.8626V16.7523L15.1995 18.4551C15.5477 18.6714 15.9379 18.7797 16.3281 18.7797C16.7184 18.7797 17.1088 18.6714 17.4569 18.4551L20.3242 16.6722V19.8626C20.3242 20.0934 20.1363 20.2812 19.9055 20.2812Z" fill="#4C51CB"/>
</g>
<defs>
<clipPath id="clip0">
<rect width="22" height="22" fill="white"/>
</clipPath>
</defs>
</svg>

<svg width="22" height="22" fill="none" xmlns="http://www.w3.org/2000/svg"><g clip-path="url(#clip0)"><path d="M7.53 20.281H2.65a.874.874 0 01-.687-.326.898.898 0 01-.182-.753c.893-4.287 4.676-7.418 9.043-7.519a5.85 5.85 0 006.062-5.84A5.85 5.85 0 0011.044 0 5.85 5.85 0 005.2 5.844c0 1.912.924 3.613 2.348 4.68a11.166 11.166 0 00-3.601 1.98A11.212 11.212 0 00.099 18.85 2.61 2.61 0 002.65 22h4.88a.86.86 0 000-1.719zM6.918 5.844a4.13 4.13 0 014.125-4.125 4.13 4.13 0 014.125 4.125 4.13 4.13 0 01-4.027 4.124.846.846 0 00-.098-.006c-.067 0-.134 0-.201.002a4.13 4.13 0 01-3.924-4.12zm12.988 7.39H12.88a2.14 2.14 0 00-2.138 2.138v4.49A2.14 2.14 0 0012.88 22h7.025a2.14 2.14 0 002.138-2.137v-4.491a2.14 2.14 0 00-2.137-2.138zm-.072 1.72l-3.285 2.041a.417.417 0 01-.442 0l-3.279-2.038a.42.42 0 01.052-.004h6.954zm.072 5.327H12.88a.42.42 0 01-.42-.418v-3.11l2.74 1.702c.348.216.738.325 1.128.325.39 0 .78-.109 1.129-.325l2.867-1.783v3.19a.42.42 0 01-.419.42z" fill="#4C51CB"/></g><defs><clipPath id="clip0"><path fill="#fff" d="M0 0h22v22H0z"/></clipPath></defs></svg>
